svg/fluentui-system-icons/ic_fluent_document_multiple_16_filled.svg

<svg width="16" height="16" viewBox="0 0 16 16" fill="none" xmlns="http://www.w3.org/2000/svg">
<path d="M14 6C14 5.44772 13.5523 5 13 5V11C13 12.6569 11.6569 14 10 14L5 14C5 14.5523 5.44772 15 6 15H10.2105C12.3034 15 14 13.3034 14 11.2105V6ZM7 1V4.5C7 5.32843 7.67157 6 8.5 6H12.0015V11.5C12.0015 12.3284 11.3299 13 10.5015 13L4.5 13C3.67157 13 3 12.3284 3 11.5V2.5C3 1.67157 3.67157 1 4.5 1H7ZM8 1.25V4.5C8 4.77614 8.22386 5 8.5 5H11.75L8 1.25Z" fill="#212121"/>
</svg>

<svg xmlns="http://www.w3.org/2000/svg" width="16" height="16"><path d="M14 6a1 1 0 0 0-1-1v6a3 3 0 0 1-3 3H5a1 1 0 0 0 1 1h4.21A3.79 3.79 0 0 0 14 11.21V6ZM7 1v3.5A1.5 1.5 0 0 0 8.5 6h3.502v5.5a1.5 1.5 0 0 1-1.5 1.5H4.5A1.5 1.5 0 0 1 3 11.5v-9A1.5 1.5 0 0 1 4.5 1H7Zm1 .25V4.5a.5.5 0 0 0 .5.5h3.25L8 1.25Z"/></svg>
